svg/powershell.svg

<?xml version="1.0" encoding="UTF-8"?>
<svg xmlns="http://www.w3.org/2000/svg" xmlns:xlink="http://www.w3.org/1999/xlink" width="32" height="32" viewBox="0 0 32 32">
<path fill-rule="nonzero" fill="rgb(0.784314%, 46.666667%, 74.117649%)" fill-opacity="1" d="M 13.230469 27.96875 C 9.480469 27.96875 5.726562 27.988281 1.972656 27.960938 C 0.0703125 27.949219 -0.277344 27.496094 0.152344 25.613281 C 1.605469 19.226562 3.101562 12.851562 4.523438 6.457031 C 4.902344 4.742188 5.726562 3.984375 7.542969 4 C 15.046875 4.070312 22.550781 4.023438 30.058594 4.03125 C 31.941406 4.03125 32.257812 4.441406 31.835938 6.371094 C 30.464844 12.640625 29.078125 18.90625 27.675781 25.171875 C 27.152344 27.515625 26.546875 27.964844 24.109375 27.96875 C 20.484375 27.976562 16.855469 27.972656 13.230469 27.96875 "/>
<path fill-rule="nonzero" fill="rgb(98.039216%, 98.039216%, 98.039216%)" fill-opacity="1" d="M 16.703125 15.949219 C 16.367188 15.5625 16.027344 15.175781 15.683594 14.792969 C 14.0625 12.976562 12.578125 11.28125 10.976562 9.546875 C 10.242188 8.753906 10.007812 7.984375 10.886719 7.203125 C 11.761719 6.429688 12.617188 6.496094 13.414062 7.386719 C 15.644531 9.863281 17.867188 12.34375 20.128906 14.789062 C 20.976562 15.703125 20.777344 16.324219 19.847656 17 C 16.277344 19.601562 12.722656 22.21875 9.175781 24.851562 C 8.375 25.441406 7.617188 25.589844 6.972656 24.71875 C 6.261719 23.753906 6.917969 23.179688 7.65625 22.640625 C 10.292969 20.710938 12.925781 18.777344 15.542969 16.824219 C 15.910156 16.554688 16.398438 16.179688 16.703125 15.949219 M 14.5 24.667969 C 13.75 24.667969 13.332031 24 13.332031 23.332031 C 13.332031 22.667969 13.75 22 14.5 22 L 20.832031 22 C 21.582031 22 22 22.667969 22 23.332031 C 22 24 21.582031 24.667969 20.832031 24.667969 Z M 14.5 24.667969 "/>
</svg>

<svg role="img" viewBox="0 0 32 32" xmlns="http://www.w3.org/2000/svg"><path d="M13.23 27.969c-3.75 0-7.503.02-11.257-.008-1.903-.012-2.25-.465-1.82-2.348 1.452-6.386 2.949-12.761 4.37-19.156.38-1.715 1.204-2.473 3.02-2.457 7.504.07 15.008.023 22.516.031 1.882 0 2.199.41 1.777 2.34a3942 3942 0 0 1-4.16 18.8c-.524 2.345-1.13 2.794-3.567 2.798-3.625.008-7.254.004-10.879 0" fill="rgb(0.784314%, 46.666667%, 74.117649%)"/><path d="M16.703 15.95a94 94 0 0 0-1.02-1.157c-1.62-1.816-3.105-3.512-4.706-5.246-.735-.793-.97-1.563-.09-2.344.875-.773 1.73-.707 2.527.184 2.23 2.476 4.453 4.957 6.715 7.402.848.914.648 1.535-.281 2.211q-5.353 3.903-10.672 7.852c-.801.59-1.559.738-2.203-.133-.711-.965-.055-1.54.683-2.078 2.637-1.93 5.27-3.864 7.887-5.817.367-.27.855-.644 1.16-.875M14.5 24.668c-.75 0-1.168-.668-1.168-1.336 0-.664.418-1.332 1.168-1.332h6.332c.75 0 1.168.668 1.168 1.332 0 .668-.418 1.336-1.168 1.336Zm0 0" fill="rgb(98.039216%, 98.039216%, 98.039216%)"/></svg>
